X: 4763
T: Boys Of Coomanore, The
R: jig
M: 6/8
K: Dmajor
|:F2{G}E FDD|cde dAG|~F3 FDD|EAG EAG|
F2{G}E FDD|cde dAG|~F3 EAG|1 EDC DAG:|2 EDC D2 B||
|:ABc dcd|fed edc|ABc ~d3|eag edc|
ABc dfg|fed edc|AGF EAG|1 FDD D2 B:|2 FDD D3||

